X: 100300
T: WEE BELLA SCHOTTISCHE
C: Composed by W.B. Laybourn
R: shottish
B: K\"ohler's Violin Repository, v.3, 1885 p.217 #2
F: http://www.archive.org/details/klersviolinrepos03rugg
Z: 2012 John Chambers <jc:trillian.mit.edu>
N: Deleted spurious rest at end of first part.
M: 2/4
L: 1/16
K: F
|:\
vc2A>B c>fa2 | (a>f)c>A (c2B2) | b2ge ^cAC2 | (f>e)d>^c (d2D2) |
=c2A>B c>fa2 | (a>f)c>A (c2B2) | (Bb)(aA) ecde | [f2A2][f2A2][f2A2] :|
|: ((3gag) |\
e2((3c'd'c') a2((3fgf) | d2((3gag) e2((3cdc) | B2c2^c2d2 | e2f2^f2 ((3gag) |
e2((3c'd'c') a2((3fgf) | d2((3gag) e2((3cdc) |[1 (Bc)(c^c) (cd)(d^d) | (^de)(ef) f2 :|[2 (Bc)de fgab | c'2c'2 _b4 "^D.C."|]

%%sep 2 1 500

